!!!!SEGMENT: pl-sa--l-1636--040_anonim--keyboard-piece.krn
!!!cenid: 17xx:747
!!!COM: Anonim
!!!COM-rismid: pe30004985
!!!CDT:
!!!CNT:
!!!OTL: [Keyboard piece]
!!!PDT:
!!!AGN: Secular
!!!SMS-siglum: PL-SA
!!!SMS-shelfmark: L 1636
!!!SMS-shelfwork: 040 W
!!!SMS-variant:
!!!SMS-altvar:
!!!NIFC-rismid: 1001076517
!!!URL-scan: http://repozytorium.nifc.pl/skany/pl-sa-nut--l1636
!!!ONB-nifc: 11r, skan 0014, s. 7-8
!!!key:
**kern	**kern
*part2	*part1
*staff2	*staff1
*Iempty	*Iempty
*I"	*I"
*clefC3	*clefC1
*k[b-]	*k[b-]
*F:	*F:
*M2/2	*M2/2
*met(c|)	*met(c|)
=1	=1
*2\right	*
*^	*
!LO:SIC:o:s:=:v:wszystkie caudy z prawej	!	!LO:SIC:o:s:=:v:wszystkie caudy z prawej
2a/	2f\	2.ff\
2b-/	2g\	.
.	.	4ee\
=2	=2	=2
4.a/	4.f\	8ff\L
.	.	8cc\
.	.	8dd\
8g/	8ryy	8ee\J
4a\	2ryy	8ff\L
.	.	8ee\
8b-\L	.	8dd\
8a\J	.	8cc\J
*v	*v	*
=3	=3
8g\L	8b-\L
8f\	8a\
8g\	8b-\
8e\J	8g\J
8f\L	4a\
8c\	.
8d\	4g\
8e\J	.
=4	=4
8f\L	8a\L
8g\	8b-\
8a\	8cc\
8f\J	8a\J
4g\	8b-\L
.	16cc\L
.	16b-\JJ
4f\	8a\L
.	8g\J
=5	=5
*	*^
8f\L	8a\L	2ryy
16g\L	16b-\L	.
16f\JJ	16a\JJ	.
8e\L	8g/L	.
8d\J	8f/J	.
8c/L	4g/	4e\
16d/L	.	.
16c/JJ	.	.
8B-/L	4a/	4f\
8A/J	.	.
=6	=6	=6
*^	*	*
8B-/L	2ryy	2g/	4f\
16c/L	.	.	.
16B-/JJ	.	.	.
8A/L	.	.	4e\
8G/J	.	.	.
2A/	2F\	8f/L	2ryy
.	.	8g/	.
.	.	8a/	.
.	.	8f/J	.
*	*	*v	*v
!!LO:LB:g=original
=7	=7	=7
*clefF4	*	*
2G/	4F\	8b-\L
.	.	16cc\L
.	.	16b-\JJ
.	4E\	8a\L
.	.	8g\J
8F\L	2ryy	8a\L
16G\L	.	16b-\L
16F\JJ	.	16a\JJ
8E\L	.	8g/L
8D\J	.	8f/J
*v	*v	*
=8	=8
*	*2\right
*	*^
!LO:TX:a:t=P:problem=mixed beam	!	!
8C/L	2g/	2e\
16c\L	.	.
16B-\JJ	.	.
8A\L	.	.
8G\J	.	.
8r	2a/	2f\
16F\LL	.	.
16E\JJ	.	.
8D/L	.	.
8C/J	.	.
*	*v	*v
=9	=9
*^	*
2F/	4BB-\	8dd\L
.	.	16ee\L
.	.	16dd\JJ
.	4AA\	8cc\L
.	.	8b-\J
2F/	4FF\	16cc\LL
.	.	16f\
.	.	16g\
.	.	16a\JJ
.	4BB-\	16b-\LL
.	.	16cc\
.	.	16dd\
.	.	16ee\JJ
=10	=10	=10
*	*	*^
2F/	4.AA\	16ff\LL	2ryy
.	.	16cc\	.
.	.	16dd\	.
.	.	16ee\JJ	.
.	.	4.ff\	.
.	8BB-\	.	.
2C/	2CC/	.	4ryy
.	.	16ee\LL	.
.	.	16dd\JJ	.
.	.	4ee/	8cc\L
.	.	.	8b-\J
*v	*v	*	*
*	*v	*v
=11	=11
1F/ 1C/ 1FF/	1ff\ 1cc\ 1a\
==	==
*-	*-
!!!system-decoration: [(s1,s2)]
!!!EED: Leszek Kubiak
!!!EST: 2020-12-08
!!!AIN: 2 empty
!!!ENC: Andrzej Borzym
!!!END: 2020-06-11
